dist/svgs/core-ui-icons/free/cil-user-female.svg

<svg xmlns="http://www.w3.org/2000/svg" viewBox="0 0 512 512"><path d="M403.6 343.656l-72.823-47.334L344.043 272h23.428a48 48 0 0044.119-66.908L361.581 90.57a112.029 112.029 0 00-211.162 0L100.41 205.092A48 48 0 00144.529 272h23.428l13.266 24.322-72.823 47.334A79.725 79.725 0 0072 410.732V496h368v-85.268a79.727 79.727 0 00-36.4-67.076zM408 464H104v-53.268a47.836 47.836 0 0121.841-40.246l97.66-63.479L186.953 240h-42.424a16 16 0 01-14.72-22.27l50.172-114.9.448-1.143a80.029 80.029 0 01151.142 0l.2.58 50.42 115.463a16 16 0 01-14.72 22.27h-42.424L288.5 307.007l97.661 63.479A47.836 47.836 0 01408 410.732z"/></svg>

<svg xmlns="http://www.w3.org/2000/svg" viewBox="0 0 512 512">
  <path fill="var(--ci-primary-color, currentColor)" d="M403.6,343.656l-72.823-47.334L344.043,272h23.428a48,48,0,0,0,44.119-66.908L361.581,90.57a112.029,112.029,0,0,0-211.162,0L100.41,205.092A48,48,0,0,0,144.529,272h23.428l13.266,24.322L108.4,343.656A79.725,79.725,0,0,0,72,410.732V496H440V410.732A79.727,79.727,0,0,0,403.6,343.656ZM408,464H104V410.732a47.836,47.836,0,0,1,21.841-40.246l97.66-63.479L186.953,240H144.529a16,16,0,0,1-14.72-22.27l50.172-114.9.448-1.143a80.029,80.029,0,0,1,151.142,0l.2.58L382.191,217.73A16,16,0,0,1,367.471,240H325.047L288.5,307.007l97.661,63.479h0A47.836,47.836,0,0,1,408,410.732Z" class="ci-primary"/>
</svg>
